X: 2
T: Eddie Kelly's
R: jig
M: 6/8
L: 1/8
K: Dmix
|F/ |: GEF G2A| Bee edc| BAB GAB| AFD AFD|| GEF G2A| Bee edc| BAB GAB|1 AFD E3:|2 AFD E>ef :||:gfe fed| Bee Bee| gfe fed| B^cd e2f||1 gfe fed| Bee Bee|BAB GAB |AFD Eef:||2 gfg aga| bge edB|BAB GAB | AFD E3:|


Tune 725	Setting 725

